X:1
T:Title
%%score ( 1 2 ) 3
L:1/8
Q:1/4=100
M:4/4
K:Bb
V:1 treble nm="Strings 1, SOPRANO ALTO"
V:2 treble 
V:3 bass nm="Strings 1, TENOR BASS"
V:1
 z4 z2 [DF]2 | [DF]2 [DB]2 [DB]2 [FA][EG] | [DF]2 [Fd]2 [Fd]2 [Ge][Fd] | %3
w: 1.~I~|have~ a~ hope,~ se *|rene~ and~ sure,~ That~ *|
 [Ec]2 [EF]2 [Ec]2 [Fd][Ec] | [DB]4 [Fd]2 [DF]2 | [DF]2 [DB]2 [DB]2 [FA][EG] | %6
w: an chors~ past~ the~ *|veil;~ * In~|all~ the~ storms~ it~ *|
 [DF]2 [Fd]2 [Fd]2 [Ge][Fd] | [Ec]2 [EF]2 [Ec]2 [Fd][Ec] | [DB]6 [DB]2 | [EA]2 [Ec]2 [EA]2 GF | %10
w: holds~ se cure,~ Nor~ *|will~ it~ ev er~ *|fail.~ *||
 [DF]2 [DB]2 [DF]2 [DB]2 | [EA]2 [Ec]2 [EA]2 [EG]F | [Fd]6 [DF]2 | [DF]2 [DB]2 [DB]2 [FA][EG] | %14
w: ||||
 [DF]2 [Fd]2 [Fd]2 [Ge][Fd] | [Ec]2 [EF]2 [Ec]2 [Fd][Ec] | [DB]6 z2 |] %17
w: |||
V:2
 x8 | x8 | x8 | x8 | x8 | x8 | x8 | x8 | x8 | z4 z2 E2 | x8 | x8 | x8 | x8 | x8 | x8 | x8 |] %17
V:3
 z4 z2 [B,,B,]2 | [B,,B,]2 [B,,F,]2 [B,,F,]2 [B,,B,]2 | [B,,B,]2 [B,,B,]2 [B,,B,]2 [B,,B,]2 | %3
 [F,A,]2 [F,A,]2 [F,A,]2 [F,A,]2 | [B,,B,]6 [B,,B,]2 | [B,,B,]2 [B,,F,]2 [B,,F,]2 [B,,B,]2 | %6
 [B,,B,]2 [B,,B,]2 [B,,B,]2 [B,,B,]2 | [F,A,]2 [F,A,]2 [F,A,]2 [F,A,]2 | [B,,B,]6 [B,,B,]2 | %9
 [F,C]2 [F,A,]2 [F,C]2 [F,A,]2 | [B,,B,]2 [B,,F,]2 [B,,B,]2 [B,,B,]2 | %11
 [F,C]2 [F,A,]2 [F,C]2 [F,A,]2 | [B,,B,]6 [B,,B,]2 | [B,,B,]2 [B,,F,]2 [B,,F,]2 [B,,B,]2 | %14
 [B,,B,]2 [B,,B,]2 [B,,B,]2 [B,,B,]2 | [F,A,]2 [F,A,]2 [F,A,]2 [F,A,]2 | [B,,B,]6 z2 |] %17

